X: 21721
T: JOHNNIE STEEL -- Strathspey
C: By J. Barnett Kirkwall
R: strathspey
B: K\"ohler's Violin Repository, v.2, 1885 p.172 #1
F: http://www.archive.org/details/klersviolinrepos02rugg
Z: 2012 John Chambers <jc:trillian.mit.edu>
M: C|
L: 1/8
K: D
z !segno!|\
vD2 (F<A) (.d>.e) (d>A) | (3BdB (3AGF G<(E"_>"E>F) |\
 D2 (F<A) (.d>.e) (d>A) | (3BdB (3AGF (F<D) D :| uA |
(.d>.e)(f>g) (.a>.b)(a>f) | (.g>.e)(c>e) (.g>.a)(g>e) |\
(.d>.e)(f>g) (.a>.b)(a>g) | (3fed (3cde f<d("^>"d>A) |
(.d>.e)(f>g) (.a>.b)(a>f) | (.g>.e)(c>e) (.g>.a)(g>e) |\
(3fdd (3ecc (3dBB (3cAA | (3BGG (3AFF (3GFE "_Segue Reel."(3DA,A, "^D.C."!segno!|]

%%sep 2 1 500

